!!!OTL: Der Jaeger im Tannenholz Es wollt ein Jaeger jagen,
!!!ARE: Europa, Mitteleuropa, Deutschland (), Brandenburg, Frankfurt a.d.O.,
!!    Seelow
!!!YOR: 7, S. 169
!!    1846 aufgezeichnet
!!!SCT: Q0151A
!!!YEM: Copyright 1995, estate of Helmut Schaffrath.
**kern
*ICvox
*Ivox
*M6/8
*k[]
*C:
{8e
=1
4g
8g
8g
8a
8b
=2
4.cc
4a}
{8a
=3
4g
8e
8f
8e
8d
=4
4c
4.r}
{8e
=5
4g
8g
8g
8a
8b
=6
4.cc
4a}
{8a
=7
8g
8f
8e
8f
8e
8d
=8
4c
4.r}
==
!!!AGN: Ballade, abgewiesener Freier, Abschied
!!!ONB: ESAC (Essen Associative Code) Database: BALLADE
!!!AMT: compound duple
!!!AIN: vox
!!!EED: Helmut Schaffrath
!!!EEV: 1.0
*-
